X:1
T:Massachusetts
T:G Major            Jacob French, 1789
T:Transcribed from The New American Melody, 1789.
T:Isaac Watts, 1719 (Psalm 124)                           88. 88. (L. M.)
%%score [ 1 ( 2 3 ) 4 5 ]
L:1/8
Q:1/4=120
M:2/2
K:G
V:1 treble nm="Tr." snm="Tr."
V:2 treble nm="C." snm="C."
V:3 treble 
V:4 treble-8 nm="T." snm="T."
V:5 bass nm="B." snm="B."
V:1
"_1. Had not the Lord, may Israel say,  Had not the Lord maintained our side,  When men, to make our lives a  prey,             Rose, ________   Rose ______  like the swel          –           ling   of  the tide.\n2. The swelling tide had stopped our breath, So fiercely did      the  waters   roll,  We had been swallowed deep in death;           Proud, _______  Proud _____   waters  had _________o'erwhelmed our soul." G4 B2 A2 | %1
 G4 G4 | (A2 G2) F4 | G8 | d4 c2 B2 | (e3 d c4) | B4 B2 A2 | A8 | z8 | z8 | z8 | z8 | (B3 c d4- | %13
 d8) | (d4 e4 | f2 d2) e2 e2 | (e4 d4 | c3 d e2) af | d4 d4 | d8 |] %20
V:2
"_3. We leap for joy, we shout and sing,  Who just es – caped  the  fatal stroke;  So flies the bird       with cheerful wing,        When, _________  When ____  once the fow           –        ler's  snare is broke." D4 D2 D2 | %1
 D4 E4 | E4 D4 | D8 | G4 E2 D2 | (G4 A4) | F4 G2 E2 | F8 | D4 D2 D2 | (G3 F E4) | F4 E2 D2 | E8 | %12
 (D3 E F4 | G8) | (G6 A2 | B2 G2) A2 B2 | (A4 G4- | G4 A2) A2 | G4 F4 | G8 |] %20
V:3
 x8 | x8 | x8 | x8 | x8 | x8 | x8 | x8 | x8 | x8 | x8 | (c3 B A4) | x8 | x8 | x8 | x8 | x8 | x8 | %18
 x8 | x8 |] %20
V:4
"_4. For  ever  blessed be     the Lord,  Who broke the fow–ler's cursed snare, Who saved us from the murdering sword,      And, __________ And ____   made our lives ___________  and  souls his care.\n5. Our help is in Jehovah's name, Who formed the earth and built the skies: He  that  upholds  that  wondrous  frame     Guards, _______ Guards ___  his  own  church _________ with  watchful  eyes." D4 G2 A2 | %1
 B4 B4 | (c2 B2) A4 | B8 | B4 c2 d2 | e8 | d4 d2 ^c2 | d8 | z8 | z8 | z8 | z8 | (G4 A4 | B8) | %14
 (B4 c4 | d4) c2 B2 | (c4 d4 | e6) dc | B4 A4 | G8 |] %20
V:5
 G,,4 G,,2 D,2 | G,4 E,4 | C,4 D,4 | G,8 | G,4 A,2 B,2 | (C3 B, A,4) | B,4 G,2 A,2 | D,8 | %8
 D,4 G,2 F,2 | E,8 | D,4 C,2 B,,2 | A,,8 | (G,,4 D,4 | G,8) | (G,4 C4 | B,4) A,2 G,2 | (A,4 B,4 | %17
 C3 B, A,G,) F,2 | G,4 D,4 | G,,8 |] %20

